X: 96
T: Shuijing jiubei The cristal cup
L: 1/4
M: 3/4
K: C
E2G [I:setbarnb 1]| 
A3 | 
D2E | 
C/ A,/G,2 | 
G,A,C | 
E2G | 
E2D/ C/ | 
D3 | 
EDG | 
EDE | 
D>E C/ A,/ | 
G,3 | 
G,A,C | 
D2G | 
E2D/ E/ | 
C3 |]

@@@ Tune index: 8764
